images_sukapura_svg/cmd/32/accepttrackedchange.svg

<svg viewBox="0 0 32 32" xmlns="http://www.w3.org/2000/svg" xmlns:xlink="http://www.w3.org/1999/xlink"><linearGradient id="a" gradientUnits="userSpaceOnUse" x1="20" x2="23" y1="9" y2="6"><stop offset="0" stop-color="#fff"/><stop offset=".77967989" stop-color="#f1f1f1"/><stop offset="1" stop-color="#d5d5d5"/></linearGradient><radialGradient id="b" cx="22" cy="9.076923" gradientTransform="matrix(1.3 .00000001 -.00000002 1.5 -6.6 -6.615385)" gradientUnits="userSpaceOnUse" r="10"><stop offset="0" stop-color="#d7d7d7"/><stop offset=".29999998" stop-color="#f7f7f7"/><stop offset="1" stop-color="#fff"/></radialGradient><linearGradient id="c" gradientUnits="userSpaceOnUse" x1="-5.186441" x2="-4.237289" y1="36.338998" y2="21.288151"><stop offset="0" stop-color="#2a9240"/><stop offset="1" stop-color="#32d74b"/></linearGradient><g fill="#98989d"><rect height="1" ry=".474576" width="4" x="8" y="22"/><rect height="1" ry=".474576" width="4" x="17" y="18"/><rect height="1" ry=".5" width="2" x="15" y="10"/></g><path d="m6 3v26h20v-14.810547-4.189453l-7-7zm19.998047 23.066406.001953 2.933594h-.002z" fill="url(#b)"/><g fill="#98989d"><path d="m5.9980469 2c-.554 0-1 .446-1 1v26c0 .554.446 1 1 1h7.0019531.482422 8.605469 1.912109 1.998047c.554 0 .892483-.456533 1-1v-3h.001953v-13h-.001953v-4.6152344l-6.507813-6.3847656zm0 1h13.0000001v6c0 .6726441.491378 1 1 1h6v4.189453h.001953v11.810547h.064453l-.066406.066406v2.933594h-1.998047-.917969-9.353515-.728516-7.0019531z"/><rect height="1" ry=".5" width="5" x="8" y="10"/><rect height="1" ry=".5" width="9" x="8" y="14"/><rect height="1" ry=".474576" width="4" x="8" y="22"/><path d="m14.474609 22c-.262915 0-.474609.211694-.474609.474609v.05078c0 .262917.211694.474611.474609.474611h2.296875l.953125-.953125c-.060895-.028313-.127406-.046875-.199218-.046875z"/><rect height="1" ry=".5" width="2" x="15" y="10"/></g><path d="m20 9h6l-6-6z" fill="url(#a)" fill-rule="evenodd"/><path d="m28.866718 15.01831c-.12872-.02414-.262379-.02554-.399788.0026-.292829.06316-.562687.227713-.752543.459017l-8.403404 9.597607-3.010174-3.004469c-.503475-.502587-1.419598-.502548-1.923168 0-.503501.502561-.503542 1.416908 0 1.919523l4.013567 4.005956 1.0452 1.001486.919775-1.084946 9.364988-10.682554c.664234-.72176.04656-2.045264-.854453-2.21423z" fill="url(#c)"/><g fill="#ff9f0a"><rect height="1" ry=".5" width="5" x="19" y="14"/><rect height="1" ry=".5" width="7" x="8" y="18"/><rect height="1" ry=".5" width="7" x="8" y="26"/></g></svg>

<?xml version="1.0" encoding="UTF-8" standalone="no"?>
<svg
   xmlns:dc="http://purl.org/dc/elements/1.1/"
   xmlns:cc="http://creativecommons.org/ns#"
   xmlns:rdf="http://www.w3.org/1999/02/22-rdf-syntax-ns#"
   xmlns:svg="http://www.w3.org/2000/svg"
   xmlns="http://www.w3.org/2000/svg"
   xmlns:xlink="http://www.w3.org/1999/xlink"
   xmlns:sodipodi="http://sodipodi.sourceforge.net/DTD/sodipodi-0.dtd"
   xmlns:inkscape="http://www.inkscape.org/namespaces/inkscape"
   viewBox="0 0 32 32"
   version="1.1"
   id="svg36"
   sodipodi:docname="accepttrackedchanges.svg"
   inkscape:version="0.92.3 (unknown)"
   inkscape:export-filename="/home/rizmut/Dokumen/Rizmut/Github/libreoffice-style-sukapura/images_sukapura/cmd/32/accepttrackedchanges.png"
   inkscape:export-xdpi="96"
   inkscape:export-ydpi="96">
  <metadata
     id="metadata42">
    <rdf:RDF>
      <cc:Work
         rdf:about="">
        <dc:format>image/svg+xml</dc:format>
        <dc:type
           rdf:resource="http://purl.org/dc/dcmitype/StillImage" />
        <dc:title></dc:title>
      </cc:Work>
    </rdf:RDF>
  </metadata>
  <defs
     id="defs40">
    <linearGradient
       id="b"
       gradientUnits="userSpaceOnUse"
       x1="20"
       x2="23"
       y1="9"
       y2="6">
      <stop
         offset="0"
         stop-color="#fff"
         id="stop1004" />
      <stop
         offset=".77967989"
         stop-color="#f1f1f1"
         id="stop1006" />
      <stop
         offset="1"
         stop-color="#d5d5d5"
         id="stop1008" />
    </linearGradient>
    <radialGradient
       id="a"
       cx="22"
       cy="9.0769234"
       gradientTransform="matrix(1.3,1e-8,-2e-8,1.5,-6.6,-6.615385)"
       gradientUnits="userSpaceOnUse"
       r="10">
      <stop
         offset="0"
         stop-color="#d7d7d7"
         id="stop997" />
      <stop
         offset=".29999998"
         stop-color="#f7f7f7"
         id="stop999" />
      <stop
         offset="1"
         stop-color="#fff"
         id="stop1001" />
    </radialGradient>
    <linearGradient
       gradientTransform="translate(-31.118644,6.6101695)"
       id="a-7"
       gradientUnits="userSpaceOnUse"
       x1="14"
       x2="13.79661"
       y1="22"
       y2="2.1355929">
      <stop
         offset="0"
         stop-color="#0040dd"
         id="stop1586"
         style="stop-color:#2a9240;stop-opacity:1" />
      <stop
         offset="1"
         stop-color="#0a84ff"
         id="stop1588"
         style="stop-color:#32d74b;stop-opacity:1" />
    </linearGradient>
    <linearGradient
       inkscape:collect="always"
       xlink:href="#a-7"
       id="linearGradient2480"
       x1="25.932203"
       y1="29.728828"
       x2="26.881355"
       y2="14.677981"
       gradientUnits="userSpaceOnUse" />
  </defs>
  <sodipodi:namedview
     pagecolor="#ffffff"
     bordercolor="#666666"
     borderopacity="1"
     objecttolerance="10"
     gridtolerance="10"
     guidetolerance="10"
     inkscape:pageopacity="0"
     inkscape:pageshadow="2"
     inkscape:window-width="1366"
     inkscape:window-height="699"
     id="namedview38"
     showgrid="true"
     inkscape:zoom="7.375"
     inkscape:cx="24.364559"
     inkscape:cy="6.363059"
     inkscape:window-x="0"
     inkscape:window-y="0"
     inkscape:window-maximized="1"
     inkscape:current-layer="svg36"
     inkscape:snap-global="false">
    <inkscape:grid
       type="xygrid"
       id="grid1653" />
  </sodipodi:namedview>
  <g
     style="fill:#98989d;fill-opacity:1"
     id="g26">
    <rect
       height="1"
       ry="0.474576"
       width="4"
       x="8"
       y="22"
       id="rect20-5"
       style="fill:#98989d;fill-opacity:1" />
    <rect
       height="1"
       ry="0.474576"
       width="4"
       x="17"
       y="18"
       id="rect22-3"
       style="fill:#98989d;fill-opacity:1" />
    <rect
       height="1"
       ry="0.5"
       width="2"
       x="15"
       y="10"
       id="rect24"
       style="fill:#98989d;fill-opacity:1" />
  </g>
  <path
     style="fill:url(#a)"
     d="M 6,3 V 29 H 26 V 14.189453 10 L 19,3 Z M 25.998047,26.066406 26,29 h -0.002 z"
     id="path1011"
     inkscape:connector-curvature="0"
     sodipodi:nodetypes="ccccccccccc" />
  <path
     style="fill:#98989d;fill-opacity:1"
     d="M 5.9980469 2 C 5.4440469 2 4.9980469 2.446 4.9980469 3 L 4.9980469 29 C 4.9980469 29.554 5.4440469 30 5.9980469 30 L 13 30 L 13.482422 30 L 22.087891 30 L 24 30 L 25.998047 30 C 26.552047 30 26.89053 29.543467 26.998047 29 L 26.998047 26 L 27 26 L 27 13 L 26.998047 13 L 26.998047 8.3847656 L 20.490234 2 L 5.9980469 2 z M 5.9980469 3 L 18.998047 3 L 18.998047 9 C 18.998047 9.6726441 19.489425 10 19.998047 10 L 25.998047 10 L 25.998047 14.189453 C 25.998047 14.189453 26 14.189453 26 14.189453 L 26 26 L 26.064453 26 L 25.998047 26.066406 L 25.998047 29 L 24 29 L 23.082031 29 L 13.728516 29 L 13 29 L 5.9980469 29 L 5.9980469 3 z "
     id="path4" />
  <g
     id="g1750">
    <rect
       fill="#808080"
       style="fill:#98989d;fill-opacity:1"
       id="rect14"
       y="10"
       x="8"
       width="5"
       ry=".5"
       height="1" />
    <rect
       fill="#808080"
       style="fill:#98989d;fill-opacity:1"
       id="rect16"
       y="14"
       x="8"
       width="9"
       ry=".5"
       height="1" />
    <rect
       height="1"
       ry="0.474576"
       width="4"
       x="8"
       y="22"
       id="rect26"
       style="fill:#98989d;fill-opacity:1" />
    <path
       style="fill:#98989d;fill-opacity:1"
       d="M 14.474609,22 C 14.211694,22 14,22.211694 14,22.474609 v 0.05078 C 14,22.788306 14.211694,23 14.474609,23 h 2.296875 l 0.953125,-0.953125 C 17.663714,22.018562 17.597203,22 17.525391,22 Z"
       id="rect28"
       inkscape:connector-curvature="0" />
    <rect
       height="1"
       ry="0.5"
       width="2"
       x="15"
       y="10"
       id="rect32"
       style="fill:#98989d;fill-opacity:1" />
  </g>
  <path
     inkscape:connector-curvature="0"
     style="fill:url(#b);fill-rule:evenodd"
     d="m 20,9 h 6 L 20,3 Z"
     id="path1015" />
  <path
     inkscape:connector-curvature="0"
     style="fill:url(#linearGradient2480);fill-opacity:1"
     d="m 28.866718,15.01831 c -0.12872,-0.02414 -0.262379,-0.02554 -0.399788,0.0026 -0.292829,0.06316 -0.562687,0.227713 -0.752543,0.459017 l -8.403404,9.597607 -3.010174,-3.004469 c -0.503475,-0.502587 -1.419598,-0.502548 -1.923168,0 -0.503501,0.502561 -0.503542,1.416908 0,1.919523 l 4.013567,4.005956 1.0452,1.001486 0.919775,-1.084946 9.364988,-10.682554 c 0.664234,-0.72176 0.04656,-2.045264 -0.854453,-2.21423 z"
     id="path28" />
  <g
     style="fill:#ff9f0a;fill-opacity:1"
     id="g18">
    <rect
       height="1"
       ry="0.5"
       width="5"
       x="19"
       y="14"
       id="rect12"
       style="fill:#ff9f0a;fill-opacity:1" />
    <rect
       height="1"
       ry="0.5"
       width="7"
       x="8"
       y="18"
       id="rect14-5"
       style="fill:#ff9f0a;fill-opacity:1" />
    <rect
       height="1"
       ry="0.5"
       width="7"
       x="8"
       y="26"
       id="rect16-6"
       style="fill:#ff9f0a;fill-opacity:1" />
  </g>
</svg>
